X:298
T:Providence
Z: id:dc-reel-387
M:C
L:1/8
K:D Major

E3F D2FA|d2fd gdfd|edBd A2FA|B2AF GFED|!
E3F D2FA|d2fd gdfd|edBd A2FA|BdAG FDD2:|!
fdd2 fdgd|fdd2 fcAe|fdd2 gfec|dfag fdd2|!
fgaf gfec|dBAF G2FG|A2GB ABde|faeg fdd2:|!

